austria/municipalities/41706.svg

<?xml version="1.0" encoding="UTF-8"?>
<!DOCTYPE svg PUBLIC "-//W3C//DTD SVG 1.1//EN" "http://www.w3.org/Graphics/SVG/1.1/DTD/svg11.dtd">
<svg xmlns="http://www.w3.org/2000/svg" version="1.1" width="166px" height="207px" style="shape-rendering:geometricPrecision; text-rendering:geometricPrecision; image-rendering:optimizeQuality; fill-rule:evenodd; clip-rule:evenodd" xmlns:xlink="http://www.w3.org/1999/xlink">
<g><path style="opacity:1" fill="#000000" d="M -0.5,-0.5 C 54.8333,-0.5 110.167,-0.5 165.5,-0.5C 165.5,44.1667 165.5,88.8333 165.5,133.5C 160.665,161.875 145.665,183.375 120.5,198C 112.336,201.554 104.002,204.388 95.5,206.5C 86.8333,206.5 78.1667,206.5 69.5,206.5C 29.593,196.928 6.25968,171.928 -0.5,131.5C -0.5,87.5 -0.5,43.5 -0.5,-0.5 Z"/></g>
<g><path style="opacity:1" fill="#fefffe" d="M 3.5,2.5 C 56.1667,2.5 108.833,2.5 161.5,2.5C 161.5,46.5 161.5,90.5 161.5,134.5C 135.244,129.702 108.911,125.368 82.5,121.5C 56.089,125.368 29.7557,129.702 3.5,134.5C 3.5,90.5 3.5,46.5 3.5,2.5 Z"/></g>
<g><path style="opacity:1" fill="#000000" d="M 44.5,24.5 C 46.7224,24.178 48.5557,24.8446 50,26.5C 51.4422,31.4948 53.2755,36.3281 55.5,41C 61.4667,41.1 67.3,40.2667 73,38.5C 75.0549,39.672 75.7216,41.3386 75,43.5C 71.5,47.8333 68,52.1667 64.5,56.5C 68,60.8333 71.5,65.1667 75,69.5C 75.49,70.7932 75.6567,72.1266 75.5,73.5C 68.7648,73.3141 62.0982,72.8141 55.5,72C 53.2787,76.6607 51.4454,81.4941 50,86.5C 48.2571,89.9838 46.4238,90.1504 44.5,87C 42.4848,81.975 40.4848,76.975 38.5,72C 31.9018,72.8141 25.2352,73.3141 18.5,73.5C 18.3433,72.1266 18.51,70.7932 19,69.5C 22.9797,65.5327 26.4797,61.1994 29.5,56.5C 26.1896,52.022 22.6896,47.6886 19,43.5C 18.2784,41.3386 18.9451,39.672 21,38.5C 26.7,40.2667 32.5333,41.1 38.5,41C 41.3968,35.8082 43.3968,30.3082 44.5,24.5 Z"/></g>
<g><path style="opacity:1" fill="#000000" d="M 116.5,24.5 C 118.39,24.2965 119.89,24.9632 121,26.5C 122.556,31.2785 124.39,35.9452 126.5,40.5C 132.425,41.1075 138.258,40.4409 144,38.5C 146.055,39.672 146.722,41.3386 146,43.5C 142.5,47.8333 139,52.1667 135.5,56.5C 138.81,60.978 142.31,65.3114 146,69.5C 146.49,70.7932 146.657,72.1266 146.5,73.5C 140.574,73.6574 134.741,72.9908 129,71.5C 128.167,71.8333 127.333,72.1667 126.5,72.5C 124.702,76.3948 123.202,80.3948 122,84.5C 121.376,86.754 120.043,88.4206 118,89.5C 114.51,84.0191 111.677,78.1858 109.5,72C 102.902,72.8141 96.2352,73.3141 89.5,73.5C 89.238,72.0222 89.5713,70.6888 90.5,69.5C 94.0755,65.347 97.4088,61.0137 100.5,56.5C 97.1896,52.022 93.6896,47.6886 90,43.5C 89.2681,41.2945 89.9348,39.6278 92,38.5C 97.7,40.2667 103.533,41.1 109.5,41C 111.739,35.4471 114.072,29.9471 116.5,24.5 Z"/></g>
<g><path style="opacity:1" fill="#002b72" d="M 46.5,27.5 C 49.1982,32.5664 51.5315,37.8998 53.5,43.5C 59.4844,43.3729 65.4844,43.3729 71.5,43.5C 68.2088,48.1267 64.5421,52.46 60.5,56.5C 64.6886,61.1876 68.6886,66.0209 72.5,71C 66.7141,70.3796 60.8808,69.5462 55,68.5C 51.8332,74.1762 49.1666,80.1762 47,86.5C 44.5343,80.5763 42.3676,74.5763 40.5,68.5C 34.1253,69.4215 27.792,70.2548 21.5,71C 25.7425,66.5925 29.4092,61.7592 32.5,56.5C 29.1667,52.1667 25.8333,47.8333 22.5,43.5C 23.6667,43.1667 24.8333,42.8333 26,42.5C 30.7966,43.4932 35.63,44.1598 40.5,44.5C 42.2212,38.7265 44.2212,33.0598 46.5,27.5 Z"/></g>
<g><path style="opacity:1" fill="#002b72" d="M 117.5,28.5 C 120.883,33.2762 123.216,38.6096 124.5,44.5C 129.37,44.1598 134.203,43.4932 139,42.5C 140.167,42.8333 141.333,43.1667 142.5,43.5C 139.167,47.8333 135.833,52.1667 132.5,56.5C 135.975,61.4753 139.641,66.3086 143.5,71C 137.227,70.2571 130.894,69.4238 124.5,68.5C 122.883,74.3959 120.717,80.0626 118,85.5C 115.892,79.4767 113.225,73.81 110,68.5C 104.119,69.5462 98.2859,70.3796 92.5,71C 96.3586,66.3086 100.025,61.4753 103.5,56.5C 100.167,52.1667 96.8333,47.8333 93.5,43.5C 99.5156,43.3729 105.516,43.3729 111.5,43.5C 113.506,38.4761 115.506,33.4761 117.5,28.5 Z"/></g>
<g><path style="opacity:1" fill="#00612a" d="M 77.5,123.5 C 105.586,127.298 133.586,131.798 161.5,137C 146.233,188.813 111.9,209.813 58.5,200C 36.8749,191.601 20.7082,177.101 10,156.5C 7.44717,150.011 5.61384,143.345 4.5,136.5C 29.0693,132.783 53.4026,128.45 77.5,123.5 Z"/></g>
<g><path style="opacity:1" fill="#fefffe" d="M -0.5,131.5 C 6.25968,171.928 29.593,196.928 69.5,206.5C 46.1667,206.5 22.8333,206.5 -0.5,206.5C -0.5,181.5 -0.5,156.5 -0.5,131.5 Z"/></g>
<g><path style="opacity:1" fill="#fefffe" d="M 165.5,133.5 C 165.5,157.833 165.5,182.167 165.5,206.5C 142.167,206.5 118.833,206.5 95.5,206.5C 104.002,204.388 112.336,201.554 120.5,198C 145.665,183.375 160.665,161.875 165.5,133.5 Z"/></g>
</svg>

<svg xmlns="http://www.w3.org/2000/svg" width="166" height="207" style="shape-rendering:geometricPrecision;text-rendering:geometricPrecision;image-rendering:optimizeQuality;fill-rule:evenodd;clip-rule:evenodd"><path style="opacity:1" d="M-.5-.5h166v134c-4.835 28.375-19.835 49.875-45 64.5a157.946 157.946 0 0 1-25 8.5h-26c-39.907-9.572-63.24-34.572-70-75V-.5z"/><path style="opacity:1" fill="#fefffe" d="M3.5 2.5h158v132a2266.413 2266.413 0 0 0-79-13 2266.296 2266.296 0 0 0-79 13V2.5z"/><path style="opacity:1" d="M44.5 24.5c2.222-.322 4.056.345 5.5 2A94.922 94.922 0 0 0 55.5 41c5.967.1 11.8-.733 17.5-2.5 2.055 1.172 2.722 2.839 2 5l-10.5 13 10.5 13a8.434 8.434 0 0 1 .5 4 210.712 210.712 0 0 1-20-1.5A94.707 94.707 0 0 0 50 86.5c-1.743 3.484-3.576 3.65-5.5.5a9009.732 9009.732 0 0 1-6-15 210.712 210.712 0 0 1-20 1.5 8.434 8.434 0 0 1 .5-4c3.98-3.967 7.48-8.3 10.5-13a195.3 195.3 0 0 0-10.5-13c-.722-2.161-.055-3.828 2-5A55.595 55.595 0 0 0 38.5 41a54.54 54.54 0 0 0 6-16.5zM116.5 24.5c1.89-.203 3.39.463 4.5 2a126.347 126.347 0 0 0 5.5 14c5.925.608 11.758-.06 17.5-2 2.055 1.172 2.722 2.839 2 5l-10.5 13c3.31 4.478 6.81 8.811 10.5 13a8.43 8.43 0 0 1 .5 4 62.665 62.665 0 0 1-17.5-2l-2.5 1a86.758 86.758 0 0 0-4.5 12c-.624 2.254-1.957 3.92-4 5a85.01 85.01 0 0 1-8.5-17.5 210.707 210.707 0 0 1-20 1.5c-.262-1.478.071-2.811 1-4a148.62 148.62 0 0 0 10-13 195.3 195.3 0 0 0-10.5-13c-.732-2.206-.065-3.872 2-5a55.594 55.594 0 0 0 17.5 2.5 497.384 497.384 0 0 1 7-16.5z"/><path style="opacity:1" fill="#002b72" d="M46.5 27.5a115.363 115.363 0 0 1 7 16 424.91 424.91 0 0 1 18 0 101.697 101.697 0 0 1-11 13 247.932 247.932 0 0 1 12 14.5A255.314 255.314 0 0 1 55 68.5c-3.167 5.676-5.833 11.676-8 18a198.826 198.826 0 0 1-6.5-18 746.44 746.44 0 0 1-19 2.5 77.359 77.359 0 0 0 11-14.5l-10-13 3.5-1c4.797.993 9.63 1.66 14.5 2a181.594 181.594 0 0 1 6-17zM117.5 28.5c3.383 4.776 5.716 10.11 7 16 4.87-.34 9.703-1.007 14.5-2l3.5 1-10 13a231.321 231.321 0 0 0 11 14.5 748.417 748.417 0 0 1-19-2.5 92.916 92.916 0 0 1-6.5 17c-2.108-6.023-4.775-11.69-8-17A255.331 255.331 0 0 1 92.5 71a231.476 231.476 0 0 0 11-14.5l-10-13a424.91 424.91 0 0 1 18 0c2.006-5.024 4.006-10.024 6-15z"/><path style="opacity:1" fill="#00612a" d="M77.5 123.5a1707.192 1707.192 0 0 1 84 13.5c-15.267 51.813-49.6 72.813-103 63-21.625-8.399-37.792-22.899-48.5-43.5a97.058 97.058 0 0 1-5.5-20c24.57-3.717 48.903-8.05 73-13z"/><path style="opacity:1" fill="#fefffe" d="M-.5 131.5c6.76 40.428 30.093 65.428 70 75h-70v-75zM165.5 133.5v73h-70a157.946 157.946 0 0 0 25-8.5c25.165-14.625 40.165-36.125 45-64.5z"/></svg>
